X:1
T:Rimsky-Korsakov harmonic exercises 24
T:Rimsky-Korsakov harmonic exercises 24
T:Realizations by S. Shchetnikov
T:"Practical Manual of Harmony" (1885)
C:Realizations by S. Shchetnikov
%%score { ( 1 2 ) | ( 3 4 ) }
L:1/8
Q:1/2=70
M:2/2
K:C
V:1 treble nm="Piano" snm="Pno."
V:2 treble 
V:3 bass 
V:4 bass 
V:1
"""^Harmonisation of melodies\n\nwith the use of seventh chords\n\n""^Example 24 by Rimsky-Korsakov:""_C:" G4"" A4 | %1
"" G4"" c4 |""[Q:1/2=65] c4""[Q:1/2=60] d4 |[M:5/4]""[Q:1/2=48] !fermata!e4"" x2[Q:1/2=65] e4 | %4
[M:2/2]""[Q:1/2=70] d4"" d4 |"" g4"" f4 |""[Q:1/2=65] f4"" e4 |[M:5/4]"" !fermata!d8 x2 | %8
[M:2/2]""[Q:1/2=70] f4"" f4 |"" e4"" f4 |""""""[Q:1/2=65] d8[Q:1/2=61] | %11
[M:5/4]""[Q:1/2=50] !fermata!c4"" x2[Q:1/2=70] d4 |[M:2/2]"" B4"" B4 |"" c4"" d4 | %14
""[Q:1/2=65] e4""""[Q:1/2=55] d4[Q:1/2=50] |""[Q:1/2=40] !fermata!c8 |] %16
[K:Ab]"^Exercise 24.1"[Q:1/2=80] z4 A4 | e4 c4 | d4 d4 | c4 c4 | !fermata!B4 B4 | e4 e2 d2 | %22
 c4 c4 | B4 B4 | A4 !fermata!A4 | A4 B4 | G4 A4 | F4 A4 | !fermata!G4 E4 | E4 F4 | G4 A4 | B4 B4 | %32
 !fermata!c4 c4 | d4 c4 | B8 | A4 !fermata!A4 | F4 E4 | G4 A4 | A4 G4 | !fermata!A8 |] %40
"^Realization 24.1"[Q:1/2=70] z4"""_A♭:" A4 |"" e4"" c4 |"" d4"" d4 |""[Q:1/2=65] c4[Q:1/2=60] c4 | %44
[M:5/4]""[Q:1/2=50] !fermata!B4"" x2[Q:1/2=70] B4 |[M:2/2]"" e4"" e2"" d2 |"" c4"" c4 | %47
"" B4""[Q:1/2=65] B4 |[M:5/4]"" A4[Q:1/2=50] !fermata!A4 x2 |[M:2/2]""[Q:1/2=70] A4"" B4 | %50
"" G4"" A4 |""[Q:1/2=65] F4""[Q:1/2=60] A4 |[M:5/4]""[Q:1/2=50] !fermata!G4"" x2[Q:1/2=70] E4 | %53
[M:2/2]"" E4"" F4 |"" G4"" A4 |""[Q:1/2=65] B4""[Q:1/2=60] B4 | %56
[M:5/4]""[Q:1/2=50] !fermata!c4 x2[Q:1/2=70] c4 |[M:2/2]"" d4"" c4 |"""""" B8[Q:1/2=65] | %59
[M:5/4]""[Q:1/2=60] A4[Q:1/2=50] !fermata!A4 x2 |[M:2/2]""[Q:1/2=70] F4"" E4 |"" G4"" A4 | %62
""[Q:1/2=70] A4""""[Q:1/2=55] G4 |"" !fermata!A8 |] %64
V:2
 E4 F4 | D4 C4 | A4 A4 |[M:5/4] G4 x2 A4 |[M:2/2] A4 G4 | G4 A4 | G4 G4 |[M:5/4] G8 x2 | %8
[M:2/2] A4 G4 | G4 F4 | A4 G2 F2 |[M:5/4] E4 x2 A4 |[M:2/2] G4 G4 | G4 A4 | G4 G2 F2 | E8 |] %16
[K:Ab] x8 | x8 | x8 | x8 | x8 | x8 | x8 | x8 | x8 | x8 | x8 | x8 | x8 | x8 | x8 | x8 | x8 | x8 | %34
 x8 | x8 | x8 | x8 | x8 | x8 |] z4 E4 | B4 A4 | B4 B4 | A4 A4 |[M:5/4] G4 x2 G4 |[M:2/2] A4 B4 | %46
 A4 A4 | A4 G4 |[M:5/4] A4 A4 x2 |[M:2/2] F4 F4 | E4 E4 | D4 E4 |[M:5/4] E4 x2 D4 |[M:2/2] C4 D4 | %54
 E4 E4 | F4 F4 |[M:5/4] E4 x2 E4 |[M:2/2] E4 E4 | F4 E2 D2 |[M:5/4] C4 C4 x2 |[M:2/2] D4 E4 | %61
 E4 E4 | F4 E2 D2 | C8 |] %64
V:3
 C4 C4 | B,4 G,4 | A,4 B,4 |[M:5/4] C4 x2 C4 |[M:2/2] C4 B,4 | C4 C4 | B,4 C4 |[M:5/4] B,8 x2 | %8
[M:2/2] C4 D4 | C4 C4 | C4 B,4 |[M:5/4] C4 x2 A,4 |[M:2/2] D4 D4 | C4 C4 | C4 B,4 | C8 |] %16
[K:Ab] z8 | z8 | z8 | z8 | z8 | z8 | z8 | z8 | z8 | z8 | z8 | z8 | z8 | z8 | z8 | z8 | z8 | z8 | %34
 z8 | z8 | z8 | z8 | z8 | z8 |] z4 C4 | E4 E4 | F4 E4 | E4 E4 |[M:5/4] E4 x2 E4 |[M:2/2] E4 E4 | %46
 E4 E4 | F4"" E4 |[M:5/4] E4 E4 x2 |[M:2/2] D4 D4 | B,4 A,4 | B,4 C4 |[M:5/4] B,4 x2 G,4 | %53
[M:2/2] A,4 A,4 | B,4 A,4 | F,4 G,4 |[M:5/4] A,4 x2 A,4 |[M:2/2] G,4 A,4 | F,4 G,4 | %59
[M:5/4] A,4 A,4 x2 |[M:2/2] A,4 A,4 | D4 C4 | B,4 B,4 | A,8 |] %64
V:4
 C,4 F,4 | F,4 E,4 | F,4 F,4 |[M:5/4] C,4 x2 A,4 |[M:2/2] F,4 F,4 | E,4 F,4 | D,4 C,4 | %7
[M:5/4] G,8 x2 |[M:2/2] F,4 B,,4 | C,4 A,4 | F,4 G,4 |[M:5/4] A,4 x2 F,4 |[M:2/2] G,4 F,4 | %13
 E,4 F,4 | G,4 G,4 | C,8 |][K:Ab] x8 | x8 | x8 | x8 | x8 | x8 | x8 | x8 | x8 | x8 | x8 | x8 | x8 | %29
 x8 | x8 | x8 | x8 | x8 | x8 | x8 | x8 | x8 | x8 | x8 |] z4 A,4 | G,4 A,4 | A,4 G,4 | A,4 A,,4 | %44
[M:5/4] E,4 x2 D,4 |[M:2/2] C,4 G,,4 | A,,4 C,4 | D,4 E,2 D,2 |[M:5/4] C,4 C,4 x2 | %49
[M:2/2] D,4 D,4 | D,4 C,4 | B,,4 A,,4 |[M:5/4] E,4 x2 E,4 |[M:2/2] A,,4 D,4 | D,4 C,4 | D,4 D,4 | %56
[M:5/4] A,,4 x2 A,,4 |[M:2/2] B,,4 C,4 | D,4 E,4 |[M:5/4] F,4 F,4 x2 |[M:2/2] D,4 C,4 | B,,4 A,,4 | %62
 D,4 E,4 | A,,8 |] %64

